assets/icons/favorite-button-icon.svg

<svg width="23" height="24" viewBox="0 0 23 24" fill="none" xmlns="http://www.w3.org/2000/svg">
<path d="M20.8608 2.3673C18.3294 -0.563136 14.3199 -0.763779 11.587 1.76453C10.3495 0.620927 8.83032 0 7.23477 0C5.37568 0 3.62571 0.840569 2.30726 2.3673C0.98952 3.89238 0.264145 5.91949 0.264145 8.07624C0.264145 10.2338 0.989521 12.2609 2.32402 13.805L10.8089 23.6284C11.0143 23.8662 11.2928 24 11.5835 24C11.5838 24 11.5838 24 11.5838 24C11.8745 24 12.153 23.8662 12.3584 23.6284L20.8636 13.7827C22.1803 12.2477 22.9057 10.2198 22.9057 8.07211C22.9057 5.91949 22.1796 3.89404 20.8608 2.3673ZM19.3123 11.9917L11.5842 20.9375L4.03547 12.1907L3.85644 11.9926C2.95275 10.9464 2.45526 9.55591 2.45526 8.07624C2.45526 6.5974 2.95275 5.20691 3.85645 4.16074C4.76121 3.11374 5.9609 2.53657 7.23477 2.53657C8.50758 2.53657 9.71119 3.11456 10.6049 4.14175L10.7928 4.36881C10.9965 4.61488 11.2775 4.75524 11.5721 4.75937C11.8495 4.73047 12.1501 4.62891 12.3584 4.3878L12.5546 4.16074C14.4179 2.00399 17.4489 2.00399 19.3116 4.16074C20.2163 5.20855 20.7145 6.5974 20.7145 8.07211C20.7145 9.546 20.2153 10.939 19.3123 11.9917Z" fill="white"/>
</svg>

<svg width="23" height="24" fill="none" xmlns="http://www.w3.org/2000/svg"><path d="M20.86 2.367c-2.53-2.93-6.54-3.13-9.273-.602C10.35.62 8.83 0 7.235 0c-1.86 0-3.61.84-4.928 2.367C.99 3.892.264 5.92.264 8.077c0 2.157.726 4.184 2.06 5.728l8.485 9.823c.205.238.484.372.775.372.29 0 .569-.134.774-.372l8.506-9.845c1.316-1.535 2.042-3.563 2.042-5.71 0-2.154-.726-4.179-2.045-5.706zm-1.548 9.625-7.728 8.945-7.549-8.746-.179-.198c-.903-1.047-1.4-2.437-1.4-3.917 0-1.479.497-2.87 1.4-3.915.905-1.047 2.105-1.624 3.379-1.624 1.273 0 2.476.578 3.37 1.605l.188.227c.204.246.485.386.78.39.277-.029.577-.13.785-.371l.197-.227c1.863-2.157 4.894-2.157 6.757 0 .904 1.048 1.402 2.436 1.402 3.911 0 1.474-.499 2.867-1.402 3.92z" fill="#fff"/></svg>
